src/assets/img/emotes/croon.svg

<svg xmlns:xlink="http://www.w3.org/1999/xlink" height="23.5" width="23.5" xmlns="http://www.w3.org/2000/svg"><g transform="translate(40.05 13)"><use height="23.45" transform="translate(-40 -13)" width="23.45" xlink:href="#a"/><use height="11.5" transform="translate(-35 -5.6)" width="13.7" xlink:href="#b"/></g><defs><path d="M-22.2.9q-.3 1.2-1.4 2.5-1.9 2.5-4.55 2.5t-4.55-2.5l-.1-.15L-22.2.9M-31.9-4l.3 1.05q.3.4.8.4.4 0 .75-.4.3-.45.3-1.05l-.15-.8 1.1.6.15.3h.05v.2q-.15 1.2-.9 2.1l-1.05.9-1.2.25-.85-.15q-.8-.25-1.4-1l-.7-1.25L-35-4v-.8l.05-.2.05-.05q1.75-.85 3.6-.35l-.3.3-.3 1.1m9.8.1q0-.7-.25-1.1-.35-.45-.8-.4-.4-.05-.75.4-.35.4-.3 1.1-.05.6.3 1l.75.45q.45-.05.8-.45.25-.4.25-1m-5.4-.3 1.6-.85q2.3-1.05 4.5 0l.05.25.05.8-.3 1.15-.05.05-.65 1.2q-.6.75-1.4 1l-.45.1-.4.05-1.25-.25-1-.9q-.75-.9-.9-2.1v-.2l.2-.3" transform="translate(35 5.6)" id="b" fill="#fff" fill-rule="evenodd"/><use height="23.45" width="23.45" xlink:href="#c" id="a"/><g id="c"><path d="m-3.35-10.25 3.4-.5 2.2.2q2.2.45 4 1.8L7.6-7.6q3.15 3.2 3.15 7.6 0 4.45-3.15 7.6v.05Q4.4 10.7.05 10.7l-2.4-.25q-2.3-.5-4.2-1.9l-1-.9-.05-.05q-3.15-3.15-3.1-7.55V-.1q-.05-2.95 1.45-5.35L-7.6-7.6l.7-.65 1.85-1.25 1.7-.75M1.9 1.85h-.05v.05l.05-.05" fill="#f39" fill-rule="evenodd" transform="translate(11.7 11.75)"/><path d="m4.1 19.35.05.05 1 .9q1.9 1.4 4.2 1.9M17.95 3q-1.8-1.35-4-1.8" fill="none" stroke="#f39" stroke-linecap="round" stroke-linejoin="round" stroke-width="2"/><path d="m9.35 22.2 2.4.25q4.35 0 7.55-3.05v-.05q3.15-3.15 3.15-7.6 0-4.4-3.15-7.6L17.95 3" fill="none" stroke="#c06" stroke-linecap="round" stroke-linejoin="round" stroke-width="2"/><path d="m13.95 1.2-2.2-.2-3.4.5m-1.7.75L4.8 3.5M2.45 6.3Q.95 8.7 1 11.65v.15q-.05 4.4 3.1 7.55" fill="none" stroke="#f9c" stroke-linecap="round" stroke-linejoin="round" stroke-width="2"/><path d="m8.35 1.5-1.7.75M4.8 3.5l-.7.65L2.45 6.3" fill="none" stroke="#fff" stroke-linecap="round" stroke-linejoin="round" stroke-width="2"/></g></defs></svg>

<?xml version="1.0" encoding="UTF-8" standalone="no"?>
<svg xmlns:xlink="http://www.w3.org/1999/xlink" height="23.5px" width="23.5px" xmlns="http://www.w3.org/2000/svg">
  <g transform="matrix(1.0, 0.0, 0.0, 1.0, 40.05, 13.0)">
    <use height="23.45" transform="matrix(1.0, 0.0, 0.0, 1.0, -40.0, -13.0)" width="23.45" xlink:href="#sprite0"/>
    <use height="11.5" transform="matrix(1.0, 0.0, 0.0, 1.0, -35.0, -5.6)" width="13.7" xlink:href="#shape1"/>
  </g>
  <defs>
    <g id="sprite0" transform="matrix(1.0, 0.0, 0.0, 1.0, 11.7, 11.75)">
      <use height="23.45" transform="matrix(1.0, 0.0, 0.0, 1.0, -11.7, -11.75)" width="23.45" xlink:href="#shape0"/>
    </g>
    <g id="shape0" transform="matrix(1.0, 0.0, 0.0, 1.0, 11.7, 11.75)">
      <path d="M-3.35 -10.25 L0.05 -10.75 2.25 -10.55 Q4.45 -10.1 6.25 -8.75 L7.6 -7.6 Q10.75 -4.4 10.75 0.0 10.75 4.45 7.6 7.6 L7.6 7.65 Q4.4 10.7 0.05 10.7 L-2.35 10.45 Q-4.65 9.95 -6.55 8.55 L-7.55 7.65 -7.6 7.6 Q-10.75 4.45 -10.7 0.05 L-10.7 -0.1 Q-10.75 -3.05 -9.25 -5.45 L-7.6 -7.6 -6.9 -8.25 -5.05 -9.5 -3.35 -10.25 M1.9 1.85 L1.85 1.85 1.85 1.9 1.9 1.85" fill="#ff3399" fill-rule="evenodd" stroke="none"/>
      <path d="M-7.6 7.6 L-7.55 7.65 -6.55 8.55 Q-4.65 9.95 -2.35 10.45 M6.25 -8.75 Q4.45 -10.1 2.25 -10.55" fill="none" stroke="#ff3399" stroke-linecap="round" stroke-linejoin="round" stroke-width="2.0"/>
      <path d="M-2.35 10.45 L0.05 10.7 Q4.4 10.7 7.6 7.65 L7.6 7.6 Q10.75 4.45 10.75 0.0 10.75 -4.4 7.6 -7.6 L6.25 -8.75" fill="none" stroke="#cc0066" stroke-linecap="round" stroke-linejoin="round" stroke-width="2.0"/>
      <path d="M2.25 -10.55 L0.05 -10.75 -3.35 -10.25 M-5.05 -9.5 L-6.9 -8.25 M-9.25 -5.45 Q-10.75 -3.05 -10.7 -0.1 L-10.7 0.05 Q-10.75 4.45 -7.6 7.6" fill="none" stroke="#ff99cc" stroke-linecap="round" stroke-linejoin="round" stroke-width="2.0"/>
      <path d="M-3.35 -10.25 L-5.05 -9.5 M-6.9 -8.25 L-7.6 -7.6 -9.25 -5.45" fill="none" stroke="#ffffff" stroke-linecap="round" stroke-linejoin="round" stroke-width="2.0"/>
    </g>
    <g id="shape1" transform="matrix(1.0, 0.0, 0.0, 1.0, 35.0, 5.6)">
      <path d="M-22.2 0.9 Q-22.5 2.1 -23.6 3.4 -25.5 5.9 -28.15 5.9 -30.8 5.9 -32.7 3.4 L-32.8 3.25 -22.2 0.9" fill="#ffffff" fill-rule="evenodd" stroke="none"/>
      <path d="M-31.9 -4.0 L-31.6 -2.95 Q-31.3 -2.55 -30.8 -2.55 -30.4 -2.55 -30.05 -2.95 -29.75 -3.4 -29.75 -4.0 L-29.9 -4.8 -28.8 -4.2 -28.65 -3.9 -28.6 -3.9 -28.6 -3.7 Q-28.75 -2.5 -29.5 -1.6 L-30.55 -0.7 -31.75 -0.45 -32.6 -0.6 Q-33.4 -0.85 -34.0 -1.6 L-34.7 -2.85 -35.0 -4.0 -35.0 -4.8 -34.95 -5.0 -34.9 -5.05 Q-33.15 -5.9 -31.3 -5.4 L-31.6 -5.1 -31.9 -4.0 M-22.1 -3.9 Q-22.1 -4.6 -22.35 -5.0 -22.7 -5.45 -23.15 -5.4 -23.55 -5.45 -23.9 -5.0 -24.25 -4.6 -24.2 -3.9 -24.25 -3.3 -23.9 -2.9 L-23.15 -2.45 Q-22.7 -2.5 -22.35 -2.9 -22.1 -3.3 -22.1 -3.9 M-27.5 -4.2 L-25.9 -5.05 Q-23.6 -6.1 -21.4 -5.05 L-21.35 -4.8 -21.3 -4.0 -21.6 -2.85 -21.65 -2.8 -22.3 -1.6 Q-22.9 -0.85 -23.7 -0.6 L-24.15 -0.5 -24.55 -0.45 -25.8 -0.7 -26.8 -1.6 Q-27.55 -2.5 -27.7 -3.7 L-27.7 -3.9 -27.5 -4.2" fill="#ffffff" fill-rule="evenodd" stroke="none"/>
    </g>
  </defs>
</svg>
